X: 93
U:~=!turn!
M:C
L:1/8
K:A dorian
{/g}e<e a>e g>e a>e | gage degd | e<e a>e g>e a>g | efge a>fe>f |
e<eg<e a<eg>e | dedc BA G2 | edBd A<A A2 | G<A B<gfe A<A |]


